X: 4
T: Paddy Fahey's
R: reel
M: 4/4
L: 1/8
K: Gmaj
BG~G2 BdcA|~B3d cAFG|AGGF GBdg|fgaf gedc|
BG~G2 BdcA|~B3d cAFG|AGGF GBdg|1fgaf g3c:|2fgaf gfga||
|:bg~g2 dg~g2|fdcA FGAc|dggf gedc|dgfa gfga|
bg~g2 dg~g2|fdcA FGAc|dggf gedc|1dgfa g3a:|2dgfa gedc||


Tune 492	Setting 26262

